!!!OTL: WEINE NUR NICHT
!!!ARE: Europa, Mitteleuropa, Deutschland
!!!SCT: F0095
!!!YEM: Copyright 1995, estate of Helmut Schaffrath.
**kern
*ICvox
*Ivox
*M3/8
*k[f#c#]
*D:
=1
{4a
8f#
=2
4dd
8a
=3
8g
16g
16f#
16g
16a
=4
8f#
4r}
=5
{8b
8a
8g
=6
4f#
8a
=7
8g
8g
8f#
=8
8e
16r}
{16a
16a
16a
=9
8a
16e
16cc#
16cc#
16cc#
=10
8cc#
8a
8r
=11
8b
8a
8g#
=12
8a
8r}
{16a
16a
=13
4a
8f#
=14
4dd
8a
=15
8g
16g
16f#
16g
16a
=16
8f#
8r}
{16a
16a
=17
4dd
8a
=18
4ff#
8dd
=19
16a
16g
8f#
8e
=20
8d
4r}
==
!!!AGN: Liebes - Lied, Untreue
!!!ONB: ESAC (Essen Associative Code) Database: FINK
!!!AMT: simple triple
!!!AIN: vox
!!!EED: Helmut Schaffrath
!!!EEV: 1.0
*-
